X: 2133
T: LOCHRYNACH
Q: "Reel."
R: Reel.
%R: reel
B: James Kerr "Merry Melodies" v.2 p.16 #133
Z: 2016 John Chambers <jc:trillian.mit.edu>
M: C
L: 1/8
%%slurgraces yes
%%graceslurs yes
K: G
|:\
v{F}G2(Bd) cAFD | G2(Bd) c3uf |\
gdBd ecAc | BGAF G2G,2 ::\
g2 (f/g/a) gdBG | g2 (f/g/a) g2b2 |\
gdBd ecAc |[1 BGAF G2G,2 :|[2 (B/c/d) (DF) G2G,2 |]

%%sep 1 1 500
%%sep 1 1 500

